public/icons/dark/ios.darkmode.svg

<svg width="192" height="192" viewBox="0 0 192 192" fill="none" xmlns="http://www.w3.org/2000/svg">
<g clip-path="url(#clip0_468_1945)">
<path d="M171.94 61.8201C172.28 54.5301 171.26 47.2201 168.94 40.2901C165.21 31.4401 157.72 24.7301 148.53 21.9801C142.53 20.4901 136.36 19.8301 130.17 20.0501H61.8296C55.6596 19.8301 49.4696 20.4901 43.4696 21.9801C34.2796 24.7301 26.7896 31.4401 23.0596 40.2901C20.7496 47.2201 19.7196 54.5101 20.0596 61.8201V130.15C19.7396 137.46 20.7596 144.75 23.0596 151.68C26.7896 160.53 34.2796 167.24 43.4696 169.99C49.4696 171.48 55.6396 172.14 61.8296 171.92H130.16C136.33 172.14 142.52 171.48 148.52 169.99C157.71 167.24 165.2 160.53 168.93 151.68C171.24 144.75 172.27 137.46 171.93 130.15V61.8201H171.94ZM50.1896 124.47H44.5496V90.7401H50.1896V124.47ZM47.3596 85.0401C45.4296 85.0201 43.8696 83.4501 43.8796 81.5001C43.8996 79.5701 45.4695 78.0101 47.4195 78.0201C49.3396 78.0401 50.8996 79.6001 50.8996 81.5301C50.8796 83.4801 49.3096 85.0601 47.3596 85.0401ZM81.2796 125.32C66.3796 125.32 56.9896 114.67 56.9896 97.7401C56.9896 80.8101 66.3596 70.1301 81.2796 70.1301C96.1996 70.1301 105.61 80.8101 105.61 97.7401C105.61 114.67 96.2396 125.32 81.2796 125.32ZM130.47 125.32C119.28 125.32 111.42 119.15 110.86 109.93H115.95C116.51 116.35 122.54 120.71 130.94 120.71C139.34 120.71 144.7 116.34 144.7 110.34C144.7 105.34 141.24 102.37 133.31 100.37L126.66 98.6601C116.76 96.1301 112.35 91.9501 112.35 84.9001C112.35 76.2501 120.13 70.1001 130.66 70.1001C141.19 70.1001 148.7 76.2701 149.02 84.7501H143.93C143.46 78.7201 138.1 74.7001 130.5 74.7001C122.9 74.7001 117.6 78.8201 117.6 84.7001C117.6 89.2901 120.92 92.0101 128.79 94.0101L134.59 95.5001C145.34 98.2101 149.86 102.33 149.86 109.77C149.88 119.18 142.3 125.33 130.47 125.33V125.32ZM81.2796 74.8201C69.5696 74.8201 62.1896 83.6901 62.1896 97.7401C62.1896 111.79 69.5596 120.61 81.2796 120.61C92.9995 120.61 100.42 111.74 100.42 97.7401C100.42 83.7401 93.0096 74.8201 81.2796 74.8201Z" fill="white"/>
</g>
<defs>
<clipPath id="clip0_468_1945">
<rect width="192" height="192" fill="white"/>
</clipPath>
</defs>
</svg>

<?xml version="1.0" encoding="UTF-8"?><svg id="Capa_2" xmlns="http://www.w3.org/2000/svg" viewBox="0 0 192 192"><defs><style>.cls-1{fill:none;}</style></defs><g id="outline"><rect class="cls-1" width="192" height="192"/></g><g id="icons"><path d="M171.94,61.82c.34-7.29-.68-14.6-3-21.53-3.73-8.85-11.22-15.56-20.41-18.31-6-1.49-12.17-2.15-18.36-1.93H61.83c-6.17-.22-12.36,.44-18.36,1.93-9.19,2.75-16.68,9.46-20.41,18.31-2.31,6.93-3.34,14.22-3,21.53v68.33c-.32,7.31,.7,14.6,3,21.53,3.73,8.85,11.22,15.56,20.41,18.31,6,1.49,12.17,2.15,18.36,1.93h68.33c6.17,.22,12.36-.44,18.36-1.93,9.19-2.75,16.68-9.46,20.41-18.31,2.31-6.93,3.34-14.22,3-21.53V61.82ZM50.19,124.47h-5.64v-33.73h5.64v33.73Zm-2.83-39.43c-1.93-.02-3.49-1.59-3.48-3.54,.02-1.93,1.59-3.49,3.54-3.48,1.92,.02,3.48,1.58,3.48,3.51-.02,1.95-1.59,3.53-3.54,3.51h0Zm33.92,40.28c-14.9,0-24.29-10.65-24.29-27.58s9.37-27.61,24.29-27.61,24.33,10.68,24.33,27.61-9.37,27.58-24.33,27.58Zm49.19,0c-11.19,0-19.05-6.17-19.61-15.39h5.09c.56,6.42,6.59,10.78,14.99,10.78s13.76-4.37,13.76-10.37c0-5-3.46-7.97-11.39-9.97l-6.65-1.71c-9.9-2.53-14.31-6.71-14.31-13.76,0-8.65,7.78-14.8,18.31-14.8s18.04,6.17,18.36,14.65h-5.09c-.47-6.03-5.83-10.05-13.43-10.05s-12.9,4.12-12.9,10c0,4.59,3.32,7.31,11.19,9.31l5.8,1.49c10.75,2.71,15.27,6.83,15.27,14.27,.02,9.41-7.56,15.56-19.39,15.56h0Zm-49.19-50.5c-11.71,0-19.09,8.87-19.09,22.92s7.37,22.87,19.09,22.87,19.14-8.87,19.14-22.87-7.41-22.92-19.14-22.92h0Z"/></g></svg>
